X: 40054
T: Throw Away The Keys
R: reel
M: 4/4
K: Dmajor
A2A>B d>ef>g|a2f>d e>fd>B|A2A>B d>ef>g|a2f>d (3efe d2:|
a>ba>f d>ef>g|a2f>d e>fd2|a>ba>f d>ef>g|a2f>d (3efe d2|
a>ba>f d>ef>g|a2f>d e>fd>B|A2A>B d>ef>g|a2f>d (3efe d2||

